static/img/in-field/switch-icon-right.svg

<svg fill="none" height="56" viewBox="0 0 118 56" width="118" xmlns="http://www.w3.org/2000/svg"><rect fill="#217cbb" height="32" rx="16" transform="matrix(1 0 0 -1 7 44)" width="64"/><path d="m68 28c0 7.1797-5.8203 13-13 13s-13-5.8203-13-13 5.8203-13 13-13 13 5.8203 13 13z" fill="#fff"/><g fill="#252a2e"><path d="m94.0001 15.6667c-.5894 0-1.149.1171-1.6585.3284-.5102.2116-1.0952-.0305-1.3068-.5407-.2115-.5101.0305-1.0952.5407-1.3067.7481-.3103 1.5677-.481 2.4246-.481h2c.5523 0 1 .4477 1 1s-.4477 1-1 1z"/><path d="m99.0001 14.6667c0-.5523.4477-1 .9999-1h4c.552 0 1 .4477 1 1s-.448 1-1 1h-4c-.5522 0-.9999-.4477-.9999-1z"/><path d="m107 14.6667c0-.5523.448-1 1-1h2c.857 0 1.677.1707 2.425.481.51.2115.752.7966.54 1.3067-.211.5102-.796.7523-1.306.5407-.51-.2113-1.07-.3284-1.659-.3284h-2c-.552 0-1-.4477-1-1z"/><path d="m89.4545 17.0348c.5102.2115.7522.7966.5407 1.3067-.2113.5096-.3285 1.0691-.3285 1.6585v2c0 .5523-.4477 1-1 1-.5522 0-1-.4477-1-1v-2c0-.8569.1708-1.6764.481-2.4246.2116-.5101.7966-.7522 1.3068-.5406z"/><path d="m114.546 17.0348c.51-.2116 1.095.0305 1.306.5406.311.7482.481 1.5677.481 2.4246v2c0 .5523-.447 1-1 1-.552 0-1-.4477-1-1v-2c0-.5894-.117-1.1489-.328-1.6585-.212-.5101.031-1.0952.541-1.3067z"/><path d="m88.6667 25c.5523 0 1 .4477 1 1v4c0 .5523-.4477 1-1 1-.5522 0-1-.4477-1-1v-4c0-.5523.4478-1 1-1z"/><path d="m115.333 25c.553 0 1 .4477 1 1v4c0 .5523-.447 1-1 1-.552 0-1-.4477-1-1v-4c0-.5523.448-1 1-1z"/><path d="m88.6667 33c.5523 0 1 .4477 1 1v2c0 .5894.1172 1.149.3285 1.6585.2115.5102-.0305 1.0952-.5407 1.3068-.5102.2115-1.0952-.0305-1.3068-.5407-.3102-.7481-.481-1.5677-.481-2.4246v-2c0-.5523.4478-1 1-1z"/><path d="m115.333 33c.553 0 1 .4477 1 1v2c0 .8569-.17 1.6765-.481 2.4246-.211.5102-.796.7522-1.306.5407-.51-.2116-.753-.7966-.541-1.3068.211-.5095.328-1.0691.328-1.6585v-2c0-.5523.448-1 1-1z"/><path d="m91.0348 40.5456c.2116-.5102.7966-.7522 1.3068-.5407.5095.2113 1.0691.3285 1.6585.3285h2c.5523 0 1 .4477 1 1 0 .5522-.4477 1-1 1h-2c-.8569 0-1.6765-.1708-2.4246-.481-.5102-.2116-.7522-.7966-.5407-1.3068z"/><path d="m112.965 40.5456c.212.5102-.03 1.0952-.54 1.3068-.748.3102-1.568.481-2.425.481h-2c-.552 0-1-.4478-1-1 0-.5523.448-1 1-1h2c.589 0 1.149-.1172 1.659-.3285.51-.2115 1.095.0305 1.306.5407z"/><path d="m99.0001 41.3334c0-.5523.4477-1 .9999-1h4c.552 0 1 .4477 1 1 0 .5522-.448 1-1 1h-4c-.5522 0-.9999-.4478-.9999-1z"/><path d="m113.374 18.1213c.39-.3905.39-1.0236 0-1.4142-.391-.3905-1.024-.3905-1.414 0l-1.329 1.3283c-.39.3905-.39 1.0237 0 1.4142.391.3905 1.024.3905 1.415 0z"/><path d="m109.389 22.1062c.391-.3905.391-1.0237 0-1.4142-.391-.3906-1.024-.3906-1.414 0l-2.657 2.6565c-.39.3905-.39 1.0237 0 1.4142.391.3906 1.024.3906 1.414 0z"/><path d="m104.076 27.4193c.39-.3905.39-1.0237 0-1.4142-.391-.3905-1.024-.3905-1.414 0l-.662.6616-.662-.6616c-.39-.3905-1.023-.3905-1.4137 0-.3906.3905-.3906 1.0237 0 1.4142l.6617.6616-.581.5807c-.3904.3906-.3904 1.0237 0 1.4142.391.3906 1.024.3906 1.414 0l.581-.5807.581.5807c.39.3906 1.024.3906 1.414 0 .391-.3905.391-1.0236 0-1.4142l-.581-.5807z"/><path d="m98.7628 32.7324c.3905-.3905.3905-1.0237 0-1.4142s-1.0237-.3905-1.4142 0l-2.6566 2.6565c-.3905.3906-.3905 1.0237 0 1.4143.3905.3905 1.0237.3905 1.4142 0z"/><path d="m93.4497 38.0455c.3905-.3905.3905-1.0237 0-1.4142s-1.0237-.3905-1.4142 0l-1.3283 1.3283c-.3905.3905-.3905 1.0237 0 1.4142s1.0237.3905 1.4142 0z"/><path d="m111.879 39.3738c.39.3905 1.023.3905 1.414 0s.391-1.0237 0-1.4142l-1.328-1.3283c-.391-.3905-1.024-.3905-1.415 0-.39.3905-.39 1.0237 0 1.4142z"/><path d="m107.894 35.389c.39.3905 1.024.3905 1.414 0 .391-.3906.391-1.0237 0-1.4143l-2.656-2.6565c-.391-.3905-1.024-.3905-1.415 0-.39.3905-.39 1.0237 0 1.4142z"/><path d="m97.2677 24.7627c.3905.3906 1.0237.3906 1.4142 0 .3905-.3905.3905-1.0237 0-1.4142l-2.6565-2.6565c-.3906-.3906-1.0237-.3906-1.4143 0-.3905.3905-.3905 1.0237 0 1.4142z"/><path d="m91.9546 19.4496c.3905.3905 1.0237.3905 1.4142 0s.3905-1.0237 0-1.4142l-1.3283-1.3283c-.3905-.3905-1.0237-.3905-1.4142 0-.3905.3906-.3905 1.0237 0 1.4142z"/><path d="m98.0747 21.1854c.3971-.1203.8194-.1854 1.2587-.1854h.9996c.553 0 1-.4477 1-1s-.447-1-1-1h-.9996c-.6379 0-1.2555.0947-1.8387.2713-.5285.1602-.8272.7185-.667 1.247.1601.5286.7184.8272 1.247.6671z"/><path d="m103.667 19c-.553 0-1 .4477-1 1s.447 1 1 1h1c.439 0 .861.0651 1.259.1854.528.1601 1.086-.1385 1.246-.6671.161-.5285-.138-1.0868-.667-1.247-.583-.1766-1.2-.2713-1.838-.2713z"/><path d="m95.1855 24.0746c.1601-.5286-.1386-1.0869-.6671-1.247-.5286-.1601-1.0869.1385-1.247.6671-.1767.5831-.2713 1.2007-.2713 1.8387v1c0 .5522.4477 1 1 1s1-.4478 1-1v-1c0-.4394.065-.8617.1854-1.2588z"/><path d="m110.729 23.4947c-.16-.5286-.719-.8272-1.247-.6671-.529.1601-.827.7184-.667 1.247.12.3971.185.8194.185 1.2588v1c0 .5522.448 1 1 1s1-.4478 1-1v-1c0-.638-.095-1.2556-.271-1.8387z"/><path d="m95.0001 29.6667c0-.5523-.4477-1-1-1s-1 .4477-1 1v1c0 .6379.0946 1.2555.2713 1.8387.1601.5285.7184.8272 1.247.667.5285-.1601.8272-.7184.6671-1.247-.1204-.3971-.1854-.8194-.1854-1.2587z"/><path d="m111 29.6667c0-.5523-.448-1-1-1s-1 .4477-1 1v1c0 .4393-.065.8616-.185 1.2587-.16.5286.138 1.0869.667 1.247.528.1602 1.087-.1385 1.247-.667.176-.5832.271-1.2008.271-1.8387z"/><path d="m98.0747 34.8146c-.5286-.1601-1.0869.1386-1.247.6671-.1602.5286.1385 1.0869.667 1.247.5832.1767 1.2008.2713 1.8387.2713h.9996c.553 0 1-.4477 1-1s-.447-1-1-1h-.9996c-.4393 0-.8616-.065-1.2587-.1854z"/><path d="m106.505 36.7287c.529-.1601.828-.7184.667-1.247-.16-.5285-.718-.8272-1.246-.6671-.398.1204-.82.1854-1.259.1854h-1c-.553 0-1 .4477-1 1s.447 1 1 1h1c.638 0 1.255-.0946 1.838-.2713z"/></g></svg>

<svg width="118" height="56" viewBox="0 0 118 56" fill="none" xmlns="http://www.w3.org/2000/svg">
<rect width="64" height="32" rx="16" transform="matrix(1 0 0 -1 7 44)" fill="#217CBB"/>
<path d="M68 28C68 35.1797 62.1797 41 55 41C47.8203 41 42 35.1797 42 28C42 20.8203 47.8203 15 55 15C62.1797 15 68 20.8203 68 28Z" fill="#fff"/>
<path d="M94.0001 15.6667C93.4107 15.6667 92.8511 15.7838 92.3416 15.9951C91.8314 16.2067 91.2464 15.9646 91.0348 15.4544C90.8233 14.9443 91.0653 14.3592 91.5755 14.1477C92.3236 13.8374 93.1432 13.6667 94.0001 13.6667H96.0001C96.5524 13.6667 97.0001 14.1144 97.0001 14.6667C97.0001 15.219 96.5524 15.6667 96.0001 15.6667H94.0001Z" fill="#252A2E"/>
<path d="M99.0001 14.6667C99.0001 14.1144 99.4478 13.6667 100 13.6667H104C104.552 13.6667 105 14.1144 105 14.6667C105 15.219 104.552 15.6667 104 15.6667H100C99.4478 15.6667 99.0001 15.219 99.0001 14.6667Z" fill="#252A2E"/>
<path d="M107 14.6667C107 14.1144 107.448 13.6667 108 13.6667H110C110.857 13.6667 111.677 13.8374 112.425 14.1477C112.935 14.3592 113.177 14.9443 112.965 15.4544C112.754 15.9646 112.169 16.2067 111.659 15.9951C111.149 15.7838 110.589 15.6667 110 15.6667H108C107.448 15.6667 107 15.219 107 14.6667Z" fill="#252A2E"/>
<path d="M89.4545 17.0348C89.9647 17.2463 90.2067 17.8314 89.9952 18.3415C89.7839 18.8511 89.6667 19.4106 89.6667 20V22C89.6667 22.5523 89.219 23 88.6667 23C88.1145 23 87.6667 22.5523 87.6667 22V20C87.6667 19.1431 87.8375 18.3236 88.1477 17.5754C88.3593 17.0653 88.9443 16.8232 89.4545 17.0348Z" fill="#252A2E"/>
<path d="M114.546 17.0348C115.056 16.8232 115.641 17.0653 115.852 17.5754C116.163 18.3236 116.333 19.1431 116.333 20V22C116.333 22.5523 115.886 23 115.333 23C114.781 23 114.333 22.5523 114.333 22V20C114.333 19.4106 114.216 18.8511 114.005 18.3415C113.793 17.8314 114.036 17.2463 114.546 17.0348Z" fill="#252A2E"/>
<path d="M88.6667 25C89.219 25 89.6667 25.4477 89.6667 26V30C89.6667 30.5523 89.219 31 88.6667 31C88.1145 31 87.6667 30.5523 87.6667 30V26C87.6667 25.4477 88.1145 25 88.6667 25Z" fill="#252A2E"/>
<path d="M115.333 25C115.886 25 116.333 25.4477 116.333 26V30C116.333 30.5523 115.886 31 115.333 31C114.781 31 114.333 30.5523 114.333 30V26C114.333 25.4477 114.781 25 115.333 25Z" fill="#252A2E"/>
<path d="M88.6667 33C89.219 33 89.6667 33.4477 89.6667 34V36C89.6667 36.5894 89.7839 37.149 89.9952 37.6585C90.2067 38.1687 89.9647 38.7537 89.4545 38.9653C88.9443 39.1768 88.3593 38.9348 88.1477 38.4246C87.8375 37.6765 87.6667 36.8569 87.6667 36V34C87.6667 33.4477 88.1145 33 88.6667 33Z" fill="#252A2E"/>
<path d="M115.333 33C115.886 33 116.333 33.4477 116.333 34V36C116.333 36.8569 116.163 37.6765 115.852 38.4246C115.641 38.9348 115.056 39.1768 114.546 38.9653C114.036 38.7537 113.793 38.1687 114.005 37.6585C114.216 37.149 114.333 36.5894 114.333 36V34C114.333 33.4477 114.781 33 115.333 33Z" fill="#252A2E"/>
<path d="M91.0348 40.5456C91.2464 40.0354 91.8314 39.7934 92.3416 40.0049C92.8511 40.2162 93.4107 40.3334 94.0001 40.3334H96.0001C96.5524 40.3334 97.0001 40.7811 97.0001 41.3334C97.0001 41.8856 96.5524 42.3334 96.0001 42.3334H94.0001C93.1432 42.3334 92.3236 42.1626 91.5755 41.8524C91.0653 41.6408 90.8233 41.0558 91.0348 40.5456Z" fill="#252A2E"/>
<path d="M112.965 40.5456C113.177 41.0558 112.935 41.6408 112.425 41.8524C111.677 42.1626 110.857 42.3334 110 42.3334H108C107.448 42.3334 107 41.8856 107 41.3334C107 40.7811 107.448 40.3334 108 40.3334H110C110.589 40.3334 111.149 40.2162 111.659 40.0049C112.169 39.7934 112.754 40.0354 112.965 40.5456Z" fill="#252A2E"/>
<path d="M99.0001 41.3334C99.0001 40.7811 99.4478 40.3334 100 40.3334H104C104.552 40.3334 105 40.7811 105 41.3334C105 41.8856 104.552 42.3334 104 42.3334H100C99.4478 42.3334 99.0001 41.8856 99.0001 41.3334Z" fill="#252A2E"/>
<path d="M113.374 18.1213C113.764 17.7308 113.764 17.0977 113.374 16.7071C112.983 16.3166 112.35 16.3166 111.96 16.7071L110.631 18.0354C110.241 18.4259 110.241 19.0591 110.631 19.4496C111.022 19.8401 111.655 19.8401 112.046 19.4496L113.374 18.1213Z" fill="#252A2E"/>
<path d="M109.389 22.1062C109.78 21.7157 109.78 21.0825 109.389 20.692C108.998 20.3014 108.365 20.3014 107.975 20.692L105.318 23.3485C104.928 23.739 104.928 24.3722 105.318 24.7627C105.709 25.1533 106.342 25.1533 106.732 24.7627L109.389 22.1062Z" fill="#252A2E"/>
<path d="M104.076 27.4193C104.466 27.0288 104.466 26.3956 104.076 26.0051C103.685 25.6146 103.052 25.6146 102.662 26.0051L102 26.6667L101.338 26.0051C100.948 25.6146 100.315 25.6146 99.9243 26.0051C99.5337 26.3956 99.5337 27.0288 99.9243 27.4193L100.586 28.0809L100.005 28.6616C99.6146 29.0522 99.6146 29.6853 100.005 30.0758C100.396 30.4664 101.029 30.4664 101.419 30.0758L102 29.4951L102.581 30.0758C102.971 30.4664 103.605 30.4664 103.995 30.0758C104.386 29.6853 104.386 29.0522 103.995 28.6616L103.414 28.0809L104.076 27.4193Z" fill="#252A2E"/>
<path d="M98.7628 32.7324C99.1533 32.3419 99.1533 31.7087 98.7628 31.3182C98.3723 30.9277 97.7391 30.9277 97.3486 31.3182L94.692 33.9747C94.3015 34.3653 94.3015 34.9984 94.692 35.389C95.0825 35.7795 95.7157 35.7795 96.1062 35.389L98.7628 32.7324Z" fill="#252A2E"/>
<path d="M93.4497 38.0455C93.8402 37.655 93.8402 37.0218 93.4497 36.6313C93.0592 36.2408 92.426 36.2408 92.0355 36.6313L90.7072 37.9596C90.3167 38.3501 90.3167 38.9833 90.7072 39.3738C91.0977 39.7643 91.7309 39.7643 92.1214 39.3738L93.4497 38.0455Z" fill="#252A2E"/>
<path d="M111.879 39.3738C112.269 39.7643 112.902 39.7643 113.293 39.3738C113.684 38.9833 113.684 38.3501 113.293 37.9596L111.965 36.6313C111.574 36.2408 110.941 36.2408 110.55 36.6313C110.16 37.0218 110.16 37.655 110.55 38.0455L111.879 39.3738Z" fill="#252A2E"/>
<path d="M107.894 35.389C108.284 35.7795 108.918 35.7795 109.308 35.389C109.699 34.9984 109.699 34.3653 109.308 33.9747L106.652 31.3182C106.261 30.9277 105.628 30.9277 105.237 31.3182C104.847 31.7087 104.847 32.3419 105.237 32.7324L107.894 35.389Z" fill="#252A2E"/>
<path d="M97.2677 24.7627C97.6582 25.1533 98.2914 25.1533 98.6819 24.7627C99.0724 24.3722 99.0724 23.739 98.6819 23.3485L96.0254 20.692C95.6348 20.3014 95.0017 20.3014 94.6111 20.692C94.2206 21.0825 94.2206 21.7157 94.6111 22.1062L97.2677 24.7627Z" fill="#252A2E"/>
<path d="M91.9546 19.4496C92.3451 19.8401 92.9783 19.8401 93.3688 19.4496C93.7593 19.0591 93.7593 18.4259 93.3688 18.0354L92.0405 16.7071C91.65 16.3166 91.0168 16.3166 90.6263 16.7071C90.2358 17.0977 90.2358 17.7308 90.6263 18.1213L91.9546 19.4496Z" fill="#252A2E"/>
<path d="M98.0747 21.1854C98.4718 21.0651 98.8941 21 99.3334 21H100.333C100.886 21 101.333 20.5523 101.333 20C101.333 19.4477 100.886 19 100.333 19H99.3334C98.6955 19 98.0779 19.0947 97.4947 19.2713C96.9662 19.4315 96.6675 19.9898 96.8277 20.5183C96.9878 21.0469 97.5461 21.3455 98.0747 21.1854Z" fill="#252A2E"/>
<path d="M103.667 19C103.114 19 102.667 19.4477 102.667 20C102.667 20.5523 103.114 21 103.667 21H104.667C105.106 21 105.528 21.0651 105.926 21.1854C106.454 21.3455 107.012 21.0469 107.172 20.5183C107.333 19.9898 107.034 19.4315 106.505 19.2713C105.922 19.0947 105.305 19 104.667 19H103.667Z" fill="#252A2E"/>
<path d="M95.1855 24.0746C95.3456 23.546 95.0469 22.9877 94.5184 22.8276C93.9898 22.6675 93.4315 22.9661 93.2714 23.4947C93.0947 24.0778 93.0001 24.6954 93.0001 25.3334V26.3334C93.0001 26.8856 93.4478 27.3334 94.0001 27.3334C94.5524 27.3334 95.0001 26.8856 95.0001 26.3334V25.3334C95.0001 24.894 95.0651 24.4717 95.1855 24.0746Z" fill="#252A2E"/>
<path d="M110.729 23.4947C110.569 22.9661 110.01 22.6675 109.482 22.8276C108.953 22.9877 108.655 23.546 108.815 24.0746C108.935 24.4717 109 24.894 109 25.3334V26.3334C109 26.8856 109.448 27.3334 110 27.3334C110.552 27.3334 111 26.8856 111 26.3334V25.3334C111 24.6954 110.905 24.0778 110.729 23.4947Z" fill="#252A2E"/>
<path d="M95.0001 29.6667C95.0001 29.1144 94.5524 28.6667 94.0001 28.6667C93.4478 28.6667 93.0001 29.1144 93.0001 29.6667V30.6667C93.0001 31.3046 93.0947 31.9222 93.2714 32.5054C93.4315 33.0339 93.9898 33.3326 94.5184 33.1724C95.0469 33.0123 95.3456 32.454 95.1855 31.9254C95.0651 31.5283 95.0001 31.106 95.0001 30.6667V29.6667Z" fill="#252A2E"/>
<path d="M111 29.6667C111 29.1144 110.552 28.6667 110 28.6667C109.448 28.6667 109 29.1144 109 29.6667V30.6667C109 31.106 108.935 31.5283 108.815 31.9254C108.655 32.454 108.953 33.0123 109.482 33.1724C110.01 33.3326 110.569 33.0339 110.729 32.5054C110.905 31.9222 111 31.3046 111 30.6667V29.6667Z" fill="#252A2E"/>
<path d="M98.0747 34.8146C97.5461 34.6545 96.9878 34.9532 96.8277 35.4817C96.6675 36.0103 96.9662 36.5686 97.4947 36.7287C98.0779 36.9054 98.6955 37 99.3334 37H100.333C100.886 37 101.333 36.5523 101.333 36C101.333 35.4477 100.886 35 100.333 35H99.3334C98.8941 35 98.4718 34.935 98.0747 34.8146Z" fill="#252A2E"/>
<path d="M106.505 36.7287C107.034 36.5686 107.333 36.0103 107.172 35.4817C107.012 34.9532 106.454 34.6545 105.926 34.8146C105.528 34.935 105.106 35 104.667 35H103.667C103.114 35 102.667 35.4477 102.667 36C102.667 36.5523 103.114 37 103.667 37H104.667C105.305 37 105.922 36.9054 106.505 36.7287Z" fill="#252A2E"/>
</svg>
